symbols/web/help_center/materialsymbolssharp/help_center_wght700grad200_24px.svg

<svg xmlns="http://www.w3.org/2000/svg" height="24" width="24"><path d="M1.85 22.15V1.85h20.3v20.3Zm3.4-3.4h13.5V5.25H5.25Zm6.6-.55q.675 0 1.15-.475.475-.475.475-1.125 0-.675-.475-1.138Q12.525 15 11.85 15q-.65 0-1.125.462-.475.463-.475 1.138 0 .65.475 1.125t1.125.475Zm-1.25-3.975h2.575q0-.775.163-1.3.162-.525 1.012-1.325.55-.525.938-1.162.387-.638.387-1.563 0-1.55-1.05-2.35t-2.525-.8q-1.6 0-2.637.925-1.038.925-1.438 2.175l2.375.9q.15-.425.5-.988.35-.562 1.125-.562.475 0 .75.312.275.313.275.638 0 .4-.287.787-.288.388-.538.588-1.1 1.025-1.362 1.575-.263.55-.263 2.15ZM5.25 18.75V5.25Z"/></svg>

<svg xmlns="http://www.w3.org/2000/svg" height="24" width="24"><path d="M1.85 22.15V1.85H22.15V22.15ZM5.25 18.75H18.75V5.25H5.25ZM11.85 18.2Q12.525 18.2 13 17.725Q13.475 17.25 13.475 16.6Q13.475 15.925 13 15.462Q12.525 15 11.85 15Q11.2 15 10.725 15.462Q10.25 15.925 10.25 16.6Q10.25 17.25 10.725 17.725Q11.2 18.2 11.85 18.2ZM10.6 14.225H13.175Q13.175 13.45 13.338 12.925Q13.5 12.4 14.35 11.6Q14.9 11.075 15.288 10.438Q15.675 9.8 15.675 8.875Q15.675 7.325 14.625 6.525Q13.575 5.725 12.1 5.725Q10.5 5.725 9.463 6.65Q8.425 7.575 8.025 8.825L10.4 9.725Q10.55 9.3 10.9 8.737Q11.25 8.175 12.025 8.175Q12.5 8.175 12.775 8.487Q13.05 8.8 13.05 9.125Q13.05 9.525 12.763 9.912Q12.475 10.3 12.225 10.5Q11.125 11.525 10.863 12.075Q10.6 12.625 10.6 14.225ZM5.25 18.75V5.25Z"/></svg>
